other/Cythara.svg

<svg width="48" height="48" version="1.1" viewBox="0 0 48 48" xmlns="http://www.w3.org/2000/svg">
 <path d="m7 5c-1.108 0-2 0.892-2 2v34c0 1.108 0.892 2 2 2h34c1.108 0 2-0.892 2-2v-34c0-1.108-0.892-2-2-2h-34zm18.182 2.666c0.11455-0.017313 0.22138-0.014908 0.29297 0.0078125 0.46429 0.14736 10.177 9.2221 9.9609 9.3066-0.04912 0.0192-1.7511-0.63247-3.7812-1.4492-2.0302-0.81675-4.0968-1.6331-4.5938-1.8125l-0.9043-0.32617-0.037109 9.5039c-0.03677 9.4275-0.038038 9.5058-0.32422 10.039-0.69815 1.3008-1.9772 2.0859-3.5293 2.168-0.50701 0.02682-1.1163-0.028955-1.4238-0.13086-1.376-0.45594-2.3501-1.394-2.7012-2.6016-0.80788-2.779 2.2003-5.3037 5.1875-4.3535 0.48037 0.15279 0.9177 0.2803 0.97266 0.28125 0.054956 9.41e-4 0.11583-4.5786 0.13477-10.176l0.035156-10.176 0.37109-0.17969c0.10221-0.048986 0.22529-0.084252 0.33984-0.10156zm-4.4512 13.701c0.18982-0.013031 0.29615 0.009053 0.35156 0.064453 0.23602 0.23602-0.006701 0.36613-1.248 0.67188-2.3255 0.57278-4.2442 1.9242-5.5312 3.8945-0.62492 0.95671-1.3203 2.7679-1.3203 3.4395 0 0.1749-0.037171 0.41435-0.082031 0.53125-0.08539 0.22253-0.3942 0.28809-0.50586 0.10742-0.1136-0.18381 0.28345-1.9622 0.625-2.8027 1.1934-2.937 3.73-5.0673 6.8594-5.7598 0.38794-0.085834 0.66175-0.13345 0.85156-0.14648zm0.083984 1.6191c0.10734-0.009278 0.19913-0.008759 0.27148 0.001953 0.082692 0.01224 0.13825 0.038318 0.16406 0.080078 0.13196 0.21352 0.037621 0.26091-0.92773 0.46289-2.7984 0.58551-5.0274 2.8202-5.6758 5.6914-0.14121 0.62529-0.28033 0.95898-0.40234 0.95898-0.10284 0-0.1875-0.098136-0.1875-0.2168 0-0.47353 0.44683-1.9142 0.84961-2.7383 0.48521-0.99277 1.8069-2.4692 2.7559-3.0781 0.89077-0.5716 2.4009-1.0972 3.1523-1.1621zm-6.5293 8.4453c0.085531-0.028776 0.18921 0.11418 0.24609 0.45312 0.52213 3.1115 2.9086 5.6381 5.8887 6.2305 0.53274 0.10589 0.89258 0.24476 0.89258 0.3457 0 0.27711-0.15787 0.29341-1.0742 0.10352-1.9387-0.40176-3.8755-1.7591-4.959-3.4746-0.61054-0.96672-1.0993-2.2915-1.1328-3.0742-0.01512-0.35299 0.053142-0.55521 0.13867-0.58398zm15.258 0.029297c0.040527-0.020731 0.081007-0.008837 0.12305 0.033203 0.22833 0.22833-0.21514 1.9272-0.78711 3.0156-1.1296 2.1497-3.1917 3.6833-5.5254 4.1074-0.37964 0.069-0.72288 0.093527-0.76172 0.054687-0.22545-0.22545 0.033026-0.39976 0.82226-0.55664 2.6811-0.53292 5.1071-2.8506 5.7051-5.4492 0.17965-0.78064 0.30224-1.1429 0.42383-1.2051zm1.6133 0.19726c0.22859 0 0.2471 0.065648 0.16211 0.57227-0.6582 3.9235-3.355 6.9667-6.998 7.8984-1.1735 0.30013-1.6079 0.32818-1.7383 0.11719-0.14489-0.23444 0.076412-0.34439 1.168-0.58203 1.2496-0.27204 2.9038-1.0641 3.8105-1.8242 1.5355-1.2872 2.696-3.1949 3.1074-5.1094 0.19034-0.88575 0.27511-1.0723 0.48828-1.0723zm-18.748 0.003906c0.045728-0.00553 0.11356 0.008715 0.20312 0.021485 0.24769 0.03532 0.31602 0.15549 0.39062 0.67969 0.48868 3.4335 3.4998 6.5883 6.9668 7.3008 1.0563 0.21707 1.3001 0.33977 1.1504 0.58203-0.12877 0.20836-0.66722 0.17048-1.8105-0.12891-1.7627-0.46158-3.4998-1.5955-4.8301-3.1504-0.77705-0.90822-1.7014-2.8545-1.959-4.127-0.19543-0.96544-0.24851-1.1612-0.11133-1.1777z" fill="#fff"/>
</svg>

<?xml version="1.0" encoding="UTF-8" standalone="no"?>
<svg
   xmlns:dc="http://purl.org/dc/elements/1.1/"
   xmlns:cc="http://creativecommons.org/ns#"
   xmlns:rdf="http://www.w3.org/1999/02/22-rdf-syntax-ns#"
   xmlns:svg="http://www.w3.org/2000/svg"
   xmlns="http://www.w3.org/2000/svg"
   xmlns:sodipodi="http://sodipodi.sourceforge.net/DTD/sodipodi-0.dtd"
   xmlns:inkscape="http://www.inkscape.org/namespaces/inkscape"
   width="48"
   height="48"
   viewBox="0 0 48 48"
   version="1.1"
   id="svg4"
   sodipodi:docname="Cythara.svg"
   inkscape:version="0.92.3 (2405546, 2018-03-11)">
  <metadata
     id="metadata10">
    <rdf:RDF>
      <cc:Work
         rdf:about="">
        <dc:format>image/svg+xml</dc:format>
        <dc:type
           rdf:resource="http://purl.org/dc/dcmitype/StillImage" />
        <dc:title></dc:title>
      </cc:Work>
    </rdf:RDF>
  </metadata>
  <defs
     id="defs8" />
  <sodipodi:namedview
     pagecolor="#969696"
     bordercolor="#666666"
     borderopacity="1"
     objecttolerance="10"
     gridtolerance="10"
     guidetolerance="10"
     inkscape:pageopacity="0"
     inkscape:pageshadow="2"
     inkscape:window-width="1920"
     inkscape:window-height="1046"
     id="namedview6"
     showgrid="false"
     inkscape:zoom="6.9532167"
     inkscape:cx="-4.6825598"
     inkscape:cy="34.724465"
     inkscape:window-x="0"
     inkscape:window-y="0"
     inkscape:window-maximized="1"
     inkscape:current-layer="svg4" />
  <path
     style="display:inline;fill:#ffffff"
     d="M 7 5 C 5.892 5 5 5.892 5 7 L 5 41 C 5 42.108 5.892 43 7 43 L 41 43 C 42.108 43 43 42.108 43 41 L 43 7 C 43 5.892 42.108 5 41 5 L 7 5 z M 25.181641 7.6660156 C 25.296191 7.6487026 25.403019 7.6511071 25.474609 7.6738281 C 25.9389 7.8211886 35.651689 16.895969 35.435547 16.980469 C 35.386427 16.999669 33.684451 16.347999 31.654297 15.53125 C 29.624145 14.7145 27.557484 13.898141 27.060547 13.71875 L 26.15625 13.392578 L 26.119141 22.896484 C 26.082371 32.323952 26.081103 32.402313 25.794922 32.935547 C 25.096772 34.236384 23.817705 35.021426 22.265625 35.103516 C 21.758618 35.130336 21.149347 35.074561 20.841797 34.972656 C 19.465752 34.516711 18.49168 33.578677 18.140625 32.371094 C 17.332743 29.592076 20.340898 27.06744 23.328125 28.017578 C 23.808495 28.170368 24.245821 28.297874 24.300781 28.298828 C 24.355737 28.299769 24.416607 23.720211 24.435547 18.123047 L 24.470703 7.9472656 L 24.841797 7.7675781 C 24.944009 7.7185926 25.06709 7.6833266 25.181641 7.6660156 z M 20.730469 21.367188 C 20.920284 21.354157 21.026621 21.376241 21.082031 21.431641 C 21.318055 21.667666 21.07533 21.797773 19.833984 22.103516 C 17.508505 22.676294 15.589738 24.027722 14.302734 25.998047 C 13.677814 26.95476 12.982422 28.76594 12.982422 29.4375 C 12.982422 29.612399 12.945251 29.851851 12.900391 29.96875 C 12.815001 30.191276 12.506192 30.256842 12.394531 30.076172 C 12.28093 29.89236 12.677983 28.113992 13.019531 27.273438 C 14.212932 24.336461 16.749487 22.206102 19.878906 21.513672 C 20.266842 21.427838 20.540653 21.380218 20.730469 21.367188 z M 20.814453 22.986328 C 20.921796 22.97705 21.01358 22.977569 21.085938 22.988281 C 21.16863 23.000521 21.22419 23.026599 21.25 23.068359 C 21.381961 23.281877 21.287621 23.329271 20.322266 23.53125 C 17.523833 24.116759 15.294891 26.351422 14.646484 29.222656 C 14.505277 29.847942 14.36615 30.181641 14.244141 30.181641 C 14.141301 30.181641 14.056641 30.083505 14.056641 29.964844 C 14.056641 29.491317 14.503475 28.050671 14.90625 27.226562 C 15.39146 26.233789 16.713172 24.757371 17.662109 24.148438 C 18.552875 23.576834 20.063053 23.051274 20.814453 22.986328 z M 14.285156 31.431641 C 14.370687 31.402865 14.47437 31.545821 14.53125 31.884766 C 15.053378 34.996287 17.439848 37.522891 20.419922 38.115234 C 20.952664 38.221126 21.3125 38.359999 21.3125 38.460938 C 21.3125 38.738045 21.15463 38.754348 20.238281 38.564453 C 18.299539 38.162691 16.362761 36.805389 15.279297 35.089844 C 14.668757 34.123124 14.180014 32.798368 14.146484 32.015625 C 14.131364 31.662632 14.199626 31.460411 14.285156 31.431641 z M 29.542969 31.460938 C 29.583496 31.440207 29.623976 31.452101 29.666016 31.494141 C 29.894346 31.722471 29.450872 33.421311 28.878906 34.509766 C 27.749286 36.659435 25.687157 38.193036 23.353516 38.617188 C 22.973879 38.686188 22.630637 38.710715 22.591797 38.671875 C 22.366346 38.446424 22.624823 38.27211 23.414062 38.115234 C 26.09516 37.582317 28.521116 35.264601 29.119141 32.666016 C 29.298793 31.885373 29.421382 31.523138 29.542969 31.460938 z M 31.15625 31.658203 C 31.384839 31.658203 31.403349 31.723851 31.318359 32.230469 C 30.660158 36.153921 27.963404 39.197161 24.320312 40.128906 C 23.146826 40.429033 22.712432 40.457088 22.582031 40.246094 C 22.437142 40.011657 22.658443 39.901702 23.75 39.664062 C 24.999575 39.392021 26.653794 38.599962 27.560547 37.839844 C 29.096075 36.552633 30.256562 34.644978 30.667969 32.730469 C 30.858307 31.84472 30.943083 31.658203 31.15625 31.658203 z M 12.408203 31.662109 C 12.453931 31.656579 12.521758 31.670824 12.611328 31.683594 C 12.859017 31.718914 12.927343 31.839088 13.001953 32.363281 C 13.490633 35.796801 16.501711 38.951608 19.96875 39.664062 C 21.025091 39.881133 21.268864 40.003836 21.119141 40.246094 C 20.990369 40.454449 20.451916 40.416579 19.308594 40.117188 C 17.545927 39.655611 15.808813 38.521651 14.478516 36.966797 C 13.701465 36.058577 12.777101 34.112289 12.519531 32.839844 C 12.324103 31.874407 12.271019 31.678669 12.408203 31.662109 z "
     id="path870" />
</svg>
